svgs/sharp-light/sitemap.svg

<svg xmlns="http://www.w3.org/2000/svg" viewBox="0 0 576 512"><!--! Font Awesome Pro 6.6.0 by @fontawesome - https://fontawesome.com License - https://fontawesome.com/license (Commercial License) Copyright 2024 Fonticons, Inc. --><path d="M336 64l0 96-32 0-32 0-32 0 0-96 96 0zM240 192l32 0 0 48L80 240l-16 0 0 16 0 64-32 0L0 320l0 32 0 96 0 32 32 0 96 0 32 0 0-32 0-96 0-32-32 0-32 0 0-48 176 0 0 48-32 0-32 0 0 32 0 96 0 32 32 0 96 0 32 0 0-32 0-96 0-32-32 0-32 0 0-48 176 0 0 48-32 0-32 0 0 32 0 96 0 32 32 0 96 0 32 0 0-32 0-96 0-32-32 0-32 0 0-64 0-16-16 0-192 0 0-48 32 0 32 0 0-32 0-96 0-32-32 0-96 0-32 0 0 32 0 96 0 32 32 0zM32 448l0-96 96 0 0 96-96 0zm208-96l96 0 0 96-96 0 0-96zm208 96l0-96 96 0 0 96-96 0z"/></svg>

<svg xmlns="http://www.w3.org/2000/svg" viewBox="0 0 576 512"><!--! Font Awesome Pro 6.4.0 by @fontawesome - https://fontawesome.com License - https://fontawesome.com/license (Commercial License) Copyright 2023 Fonticons, Inc. --><path d="M336 64v96H304 272 240V64h96zM240 192h32v48H80 64v16 64H32 0v32 96 32H32h96 32V448 352 320H128 96V272H272v48H240 208v32 96 32h32 96 32V448 352 320H336 304V272H480v48H448 416v32 96 32h32 96 32V448 352 320H544 512V256 240H496 304V192h32 32V160 64 32H336 240 208V64v96 32h32zM32 448V352h96v96H32zm208-96h96v96H240V352zm208 96V352h96v96H448z"/></svg>
